!!!!SEGMENT: pl-wnifc--6670-n--001-021_gall-jan-karol--piesni-polskie-na-chor-meski-z-i-9-polnoc-juz-byla.krn
!!!cenid: 19xx:189
!!!COM: Gall, Jan Karol
!!!COM-rismID: pe50042628
!!!CDT: 1856-1912
!!!CNT: Polish
!!!GTL: Pieśni polskie na chór męski (z. I)
!!!OTL: 9. Północ już była
!!!OMV: 021
!!!PDT:
!!!AGN:
!!!YEC: Copyright 2022 Narodowy Instytut Fryderyka Chopina (https://polishscores.org)
!!!YEM: License CC-BY-4.0 (https://creativecommons.org/licenses/by/4.0)
!!!SMS-siglum: PL-Wnifc
!!!SMS-shelfmark: 6670/n
!!!SMS-variant:
!!!SMS-altvar:
!!!SMS-shelfwork: 001-021 G
!!!NIFC-rismSourceID: 1001152877
!!!NIFC-rismChildID: 1001152910
!!!NIFC-islandoraID: nifc:213182
!!!URL-pdf-islandora: https://repozytorium.nifc.pl/islandora/object/nifc:213182/datastream/PDF/view
!!!URL-scan: https://polish.musicsources.pl/pl/lokalizacje/galeria/druki-muzyczne/16895/10 @EN{Scan on Polish Music Sources Website} @PL{Skany w portalu Dziedzictwo Muzyki Polskiej w otwartym dostępie}
!!!IIIF:
!!!ONB-nifc:
!!!OMD: Allegretto.
!!!AIN: 1 bass 1 tenor
!!!key: A-
**kern	**text	**text	**dynam	**kern	**text	**text	**text	**text	**dynam
*part2	*part2	*part2	*part2	*part1	*part1	*part1	*part1	*part1	*part1
*staff2	*staff2	*staff2	*	*staff1	*staff1	*staff1	*staff1	*staff1	*
*IGcoro	*	*	*	*IGcoro	*	*	*	*	*
*ICvox	*	*	*	*ICvox	*	*	*	*	*
*Ibass	*	*	*	*Itenor	*	*	*	*	*
*I"Basy.	*	*	*	*I"Tenory.	*	*	*	*	*
*I'B	*	*	*	*I'T	*	*	*	*	*
*clefF4	*	*	*	*clefGv2	*	*	*	*	*
*k[b-e-a-d-]	*	*	*	*k[b-e-a-d-]	*	*	*	*	*
*A-:	*	*	*	*A-:	*	*	*	*	*
*M3/8	*	*	*	*M3/8	*	*	*	*	*
*	*	*	*	*	*above	*above	*below	*below	*
=1	=1	=1	=1	=1	=1	=1	=1	=1	=1
*	*	*	*	*^	*	*	*	*	*
!	!	!	!	!LO:TX:t=P:problem=brak przenośnika oktawowego przy kluczu	!	!	!	!	!	!
4.r	.	.	.	8E-/	4.r	Pół-	Któ-	.	.	p
.	.	.	.	8A-/	.	-noc	-rą	.	.	.
.	.	.	.	8G/	.	już	zo-	.	.	.
=2	=2	=2	=2	=2	=2	=2	=2	=2	=2	=2
4.r	.	.	.	4A-/	4r	by-	-czy-	.	.	.
!	!	!	!	!	!	!	!	!	!	!LO:DY:b:rj
.	.	.	.	8B-/	8E-\	ła	-wszy	Hej!	i	p
=3	=3	=3	=3	=3	=3	=3	=3	=3	=3	=3
4.r	.	.	.	8c/	(8A-\	gdy	i	gdy	zo-	.
.	.	.	.	8B-/	8E-\)	się	zo-	się	.	.
.	.	.	.	8c/	8A-\	zja-	-ba-	zja-	-ba-	.
=4	=4	=4	=4	=4	=4	=4	=4	=4	=4	=4
*^	*	*	*	*	*	*	*	*	*	*
4r	4ryy	.	.	.	4A-/	4C\	-wi-	-czy-	-wi-	-czy-	.
!	!	!	!	!LO:DY:b	!	!	!	!	!	!	!
8E-/	8E-\	Hej!	Hej!	p	8B-/	8E-\	-ła	-wszy	-ła	-wszy	.
=5	=5	=5	=5	=5	=5	=5	=5	=5	=5	=5	=5
8A-/	8A-\	nad	krzy-	.	8c/	8A-\	nad	krzy-	nad	krzy-	.
8E-/	8E-\	nis-	-knął	.	8B-/	8G\	nis-	-knął	nis-	-knął	.
8A-/	8A-\	-ką	moc-	.	8c/	8A-\	-ką	moc-	-ką	moc-	.
!!LO:LB:g=original
=6	=6	=6	=6	=6	=6	=6	=6	=6	=6	=6	=6
8F/	8F\	do-	-no	.	8d-/	8A-\	do-	-no	do-	-no	.
8F/	8F\	-li-	Woj-	.	8d-/	8A-\	-li-	Woj-	-li-	Woj-	.
16G/LL	16G\LL	-ną	-tek	.	16e-/LL	8A-\	-ną	-tek	-ną	-tek	.
16F/JJ	16F\JJ	.	.	.	16d-/JJ	.	.	.	.	.	.
=7	=7	=7	=7	=7	=7	=7	=7	=7	=7	=7	=7
8E-/	8E-\	ja-	na	.	8c/	8A-\	ja-	na	ja-	na	.
8E-/	8C\	-sna	Szy-	.	8c/	8A-\	-sna	Szy-	-sna	Szy-	.
16F/LL	16D-\LL	łu-	-mo-	.	8B-/	16A-\LL	łu-	-mo-	łu-	-mo-	.
16E-/JJ	16E-\JJ	.	.	.	.	16G\JJ	.	.	.	.	.
=8	=8	=8	=8	=8	=8	=8	=8	=8	=8	=8	=8
4C/	4AA-\	-na:	-na:	.	4A-/	4A-\	-na:	-na:	-na:	-na:	.
!LO:N:vis=4	!	!	!	!	!LO:N:vis=4	!	!	!	!	!	!
8r	8ryy	.	.	.	8r	8ryy	.	.	.	.	.
=9:|!	=9:|!	=9:|!	=9:|!	=9:|!	=9:|!	=9:|!	=9:|!	=9:|!	=9:|!	=9:|!	=9:|!
*	*	*	*	*	*	*	*below	*	*	*	*
!	!	!	!	!LO:DY:b	!	!	!	!	!	!	!
8G/	8E-\	.	.	f	8B-/	8B-\	Szy-	.	.	.	f
16G/LL	16E-\LL	.	.	.	16e-/LL	8B-\	-mo-	.	.	.	.
16F/JJ	16BB-\JJ	.	.	.	16dn/JJ	.	.	.	.	.	.
8G/	8E-\	.	.	.	8e-/	8B-\	-nie	.	.	.	.
=10	=10	=10	=10	=10	=10	=10	=10	=10	=10	=10	=10
8B-/	8B-\	.	.	.	8B-/	8B-\	ko-	.	.	.	.
16A-/LL	16A-\LL	.	.	.	16A-/LL	16A-\LL	-cha-	.	.	.	.
16G/JJ	16G\JJ	.	.	.	16G/JJ	16G\JJ	.	.	.	.	.
16F/LL	16F\LL	.	.	.	16F/LL	16F\LL	-ny	.	.	.	.
16E-/JJ	16E-\JJ	.	.	.	16E-/JJ	16E-\JJ	.	.	.	.	.
=11	=11	=11	=11	=11	=11	=11	=11	=11	=11	=11	=11
8B-/	8B-\	.	.	.	8B-/	8B-\	znak	.	.	.	.
16G/LL	16E-\LL	.	.	.	16e-/LL	8B-\	to	.	.	.	.
16F/JJ	16BB-\JJ	.	.	.	16dn/JJ	.	.	.	.	.	.
8G/	8E-\	.	.	.	8e-/	8B-\	nie-	.	.	.	.
!!LO:LB:g=original
=12	=12	=12	=12	=12	=12	=12	=12	=12	=12	=12	=12
8B-/	8B-\	.	.	.	8B-/	8B-\	-wi-	.	.	.	.
16A-/LL	16A-\LL	.	.	.	16A-/LL	16A-\LL	-dzia-	.	.	.	.
16G/JJ	16G\JJ	.	.	.	16G/JJ	16G\JJ	.	.	.	.	.
16F/LL	16F\LL	.	.	.	16F/LL	16F\LL	-ny	.	.	.	.
16E-/JJ	16E-\JJ	.	.	.	16E-/JJ	16E-\JJ	.	.	.	.	.
=13	=13	=13	=13	=13	=13	=13	=13	=13	=13	=13	=13
8A-/	8A-\	.	.	.	8c/	8A-\	że	.	.	.	.
8E-/	8E-\	.	.	.	8B-/	8G\	ca-	.	.	.	.
8A-/	8A-\	.	.	.	8c/	8A-\	-łe	.	.	.	.
=14	=14	=14	=14	=14	=14	=14	=14	=14	=14	=14	=14
4F/	4F\	.	.	.	4d-/	4A-\	nie-	.	.	.	.
16G/LL	16G\LL	.	.	.	16e-/LL	8A-\	-bo	.	.	.	.
16F/JJ	16F\JJ	.	.	.	16d-/JJ	.	.	.	.	.	.
=15	=15	=15	=15	=15	=15	=15	=15	=15	=15	=15	=15
4E-/	4E-\	.	.	.	4c/	4A-\	czer-	.	.	.	.
8E-/	8E-\	.	.	.	8B-/	16A-\LL	-wo-	.	.	.	.
.	.	.	.	.	.	16G\JJ	.	.	.	.	.
=16	=16	=16	=16	=16	=16	=16	=16	=16	=16	=16	=16
4C/	4AA-\	.	.	.	4A-/	4A-\	ne.	.	.	.	.
!LO:N:vis=4	!	!	!	!	!LO:N:vis=4	!	!	!	!	!	!
8r	8ryy	.	.	.	8r	8ryy	.	.	.	.	.
=17	=17	=17	=17	=17	=17	=17	=17	=17	=17	=17	=17
!	!	!	!	!LO:DY:b	!	!	!	!	!	!	!
16C/LL	8AA-\	.	.	p	16A-/LL	8A-\	Na	.	.	.	p
16D-/JJ	.	.	.	.	16B-/JJ	.	.	.	.	.	.
8E-/	8AA-\	.	.	.	8c/	8A-\	bra-	.	.	.	.
8E-/	8AA-\	.	.	.	8c/	8A-\	-ci	.	.	.	.
!!LO:LB:g=original
=18	=18	=18	=18	=18	=18	=18	=18	=18	=18	=18	=18
!	!	!	!	!LO:HP:b	!	!	!	!	!	!	!
8E-/	8AA-\	.	.	<	8c/	8A-\	za-	.	.	.	<
8E-/	8AA-\	.	.	.	8c/	8A-\	-wo-	.	.	.	.
8E-/	8AA-\	.	.	[[	8c/	8A-\	-łaj	.	.	.	[[
=19	=19	=19	=19	=19	=19	=19	=19	=19	=19	=19	=19
8E-/	8AA-\	.	.	.	16c/LL	16A-\LL	nie-	.	.	.	.
.	.	.	.	.	16d-/JJ	16B-\JJ	.	.	.	.	.
8E-/	8AA-\	.	.	.	8e-/	8c\	-chaj	.	.	.	.
8E-/	8AA-\	.	.	.	8d-/	8B-\	wsta-	.	.	.	.
=20	=20	=20	=20	=20	=20	=20	=20	=20	=20	=20	=20
!	!	!	!	!LO:HP:b	!	!	!	!	!	!	!
4E-/	4AA-\	.	.	>	4c/	4A-\	-wa-	.	.	.	>
8D-/	8AA-\	.	.	]	8B-/	8G\	-ją	.	.	.	]
=21	=21	=21	=21	=21	=21	=21	=21	=21	=21	=21	=21
16C/LL	8AA-\	.	.	.	16A-/LL	8A-\	ku-	.	.	.	.
16D-/JJ	.	.	.	.	16B-/JJ	.	.	.	.	.	.
8E-/	8AA-\	.	.	.	8c/	8A-\	-ba	.	.	.	.
!	!	!	!	!LO:HP:b	!	!	!	!	!	!	!
8E-/	8AA-\	.	.	<	8c/	8A-\	i	.	.	.	<
=22	=22	=22	=22	=22	=22	=22	=22	=22	=22	=22	=22
8E-/	8AA-\	.	.	.	8c/	8A-\	Mi-	.	.	.	.
8E-/	8AA-\	.	.	.	8c/	8A-\	-ko-	.	.	.	.
8E-/	8AA-\	.	.	[	8c/	8A-\	-łaj	.	.	.	[
=23	=23	=23	=23	=23	=23	=23	=23	=23	=23	=23	=23
8E-/	8AA-\	.	.	.	16c/LL	16A-\LL	niech	.	.	.	.
.	.	.	.	.	16d-/JJ	16B-\JJ	.	.	.	.	.
8E-/	8AA-\	.	.	.	8e-/	8c\	wy-	.	.	.	.
8E-/	8AA-\	.	.	.	8d-/	8B-\	-pe-	.	.	.	.
!!LO:LB:g=original
=24	=24	=24	=24	=24	=24	=24	=24	=24	=24	=24	=24
4E-/	4AA-\	.	.	.	4c/	4A-\	-dza-	.	.	.	.
8E-/	8AA-\	.	.	.	16B-/LL	8G\	-ją	.	.	.	.
.	.	.	.	.	16e-/JJ	.	.	.	.	.	.
=25	=25	=25	=25	=25	=25	=25	=25	=25	=25	=25	=25
*	*	*	*	*	*	*	*above	*below	*	*	*
!	!	!	!	!LO:DY:b	!	!	!	!	!	!	!
8A-/	8AA-\	.	.	f	4.e-/	8c\	ba-	ba-	.	.	f
8E-/	8E-\	.	.	.	.	8B-\	.	-ra-	.	.	.
8A-/	8A-\	.	.	.	.	8c\	.	-ny	.	.	.
=26	=26	=26	=26	=26	=26	=26	=26	=26	=26	=26	=26
8B-/	8B-\	.	.	.	4.e-/	8d-\	-ra-	i	.	.	.
8B-/	8B-\	.	.	.	.	8d-\	.	ca-	.	.	.
16c/LL	16c\LL	.	.	.	.	16e-\LL	.	-py	.	.	.
16B-/JJ	16B-\JJ	.	.	.	.	16d-\JJ	.	.	.	.	.
=27	=27	=27	=27	=27	=27	=27	=27	=27	=27	=27	=27
8A-/	8A-\	.	.	.	[4.e-/	8c\	-ny	Koź-	.	.	.
8E-/	8E-\	.	.	.	.	8B-\	.	-lę-	.	.	.
8A-/	8A-\	.	.	.	.	8c\	.	-ta	.	.	.
=28	=28	=28	=28	=28	=28	=28	=28	=28	=28	=28	=28
!	!	!	!	!	!LO:N:vis=4	!	!	!	!	!	!
8B-/	8B-\	.	.	.	4.e-/]	8d-\	.	i	.	.	.
8B-/	8B-\	.	.	.	.	8d-\	.	sko-	.	.	.
16c/LL	16c\LL	.	.	.	.	16e-\LL	.	-py	.	.	.
16B-/JJ	16B-\JJ	.	.	.	.	16d-\JJ	.	.	.	.	.
=29	=29	=29	=29	=29	=29	=29	=29	=29	=29	=29	=29
4A-/	4A-\	.	.	.	4e-/	4c\	zam-	zam-	.	.	.
8E-/	8E-\	.	.	.	8d-/	8B-\	-knio-	-knio-	.	.	.
=30	=30	=30	=30	=30	=30	=30	=30	=30	=30	=30	=30
4E-/	4AA-;\	.	.	.	4c;/	4A-\	-ne.	-ne.	.	.	.
8r	8ryy	.	.	.	8r	8ryy	.	.	.	.	.
*v	*v	*	*	*	*v	*v	*	*	*	*	*
==	==	==	==	==	==	==	==	==	==
*-	*-	*-	*-	*-	*-	*-	*-	*-	*-
!!!system-decoration: [(*)]
!!!ENC: Filip Voros
!!!END: 2024-05-03
!!!EED: Andrzej Kubiczek
!!!EEV: 2025-03-11
